public/static/img/common/more.svg

<svg width="20" height="20" viewBox="0 0 20 20" fill="none" xmlns="http://www.w3.org/2000/svg">
<path d="M10.0804 1.65234C14.7048 1.65234 18.4537 5.40123 18.4537 10.0257C18.4537 14.6502 14.7048 18.399 10.0804 18.399C5.4559 18.399 1.70703 14.6502 1.70703 10.0257C1.70703 5.40123 5.4559 1.65234 10.0804 1.65234ZM7.07842 8.34576C6.77543 8.03629 6.27914 8.02385 5.96094 8.32107C5.63807 8.62268 5.62082 9.12891 5.92242 9.4518L9.50936 13.2918L9.52252 13.3055C9.84096 13.6309 10.3687 13.6255 10.6803 13.29L14.24 9.45598L14.2528 9.44178C14.54 9.11756 14.5171 8.62166 14.198 8.32537L14.1838 8.31252C13.8596 8.02537 13.3637 8.04824 13.0674 8.36732L10.0922 11.5718L7.09162 8.35959L7.07842 8.34576Z" fill="#828282"/>
</svg>

<svg width="20" height="20" viewBox="0 0 20 20" fill="none" xmlns="http://www.w3.org/2000/svg"><path d="M10.08 1.652a8.373 8.373 0 1 1 0 16.747 8.373 8.373 0 0 1 0-16.747zM7.078 8.346a.8.8 0 0 0-1.156 1.106l3.587 3.84.014.014a.8.8 0 0 0 1.157-.016l3.56-3.834.013-.014a.8.8 0 0 0-.055-1.117l-.014-.012a.8.8 0 0 0-1.117.054l-2.975 3.205-3-3.212-.014-.014z" fill="#828282"/></svg>
